Icons/SVG/brands/android.svg

<?xml version="1.0" encoding="UTF-8"?><svg id="Android" xmlns="http://www.w3.org/2000/svg" viewBox="0 0 24 24"><rect x="5" y="10" width="1" height="2"/><rect x="18" y="10" width="1" height="2"/><path d="m22,20v-2h-1v-1h-1v-1h-1v-1h-1v-3h-1v2h-2v-1h-6v1h-2v-2h-1v3h-1v1h-1v1h-1v1h-1v2h-1v3h22v-3h-1Zm-14-2v2h-2v-2h2Zm8,0h2v2h-2v-2Z"/><g id="BG_copy_139"><rect width="24" height="24" fill="none"/></g></svg>

<svg width="24" height="24" viewBox="0 0 24 24" fill="none" xmlns="http://www.w3.org/2000/svg">
<path d="M6 10H5V12H6V10Z" fill="black"/>
<path d="M19 10H18V12H19V10Z" fill="black"/>
<path d="M22 20V18H21V17H20V16H19V15H18V12H17V14H15V13H9V14H7V12H6V15H5V16H4V17H3V18H2V20H1V23H23V20H22ZM8 18V20H6V18H8ZM16 18H18V20H16V18Z" fill="black"/>
</svg>
